source/img/sprite/moon.svg

<svg width="22" height="22" viewBox="0 0 22 22" fill="none" xmlns="http://www.w3.org/2000/svg">
<path d="M20.5272 12.382C20.3228 12.3307 20.1183 12.382 19.9394 12.5103C19.2748 13.0745 18.5081 13.5362 17.6646 13.844C16.8723 14.1518 16.0033 14.3057 15.0831 14.3057C13.0128 14.3057 11.1215 13.4593 9.76681 12.0999C8.41217 10.7405 7.56872 8.84251 7.56872 6.76497C7.56872 5.89291 7.72207 5.0465 7.97767 4.27704C8.25882 3.45628 8.66777 2.71247 9.20451 2.07125C9.43454 1.78912 9.38343 1.37874 9.10227 1.1479C8.92336 1.01966 8.71888 0.96836 8.51441 1.01966C6.34188 1.60958 4.4505 2.91766 3.09586 4.66177C1.79234 6.38024 1 8.50908 1 10.8431C1 13.6388 2.12461 16.178 3.96487 18.0247C5.80513 19.8715 8.3355 21 11.1215 21C13.4729 21 15.6454 20.1792 17.3835 18.8199C19.147 17.4348 20.425 15.4599 20.9618 13.2028C21.0895 12.8181 20.8851 12.459 20.5272 12.382ZM16.6167 17.7426C15.1342 18.9225 13.2429 19.6406 11.1726 19.6406C8.74444 19.6406 6.54635 18.6403 4.96168 17.0501C3.37701 15.4599 2.3802 13.2541 2.3802 10.8175C2.3802 8.79122 3.04474 6.94451 4.1949 5.45688C4.98724 4.43094 5.98405 3.58453 7.13421 2.99461C7.00642 3.27674 6.87862 3.55888 6.77638 3.86666C6.44411 4.79002 6.29076 5.76467 6.29076 6.79062C6.29076 9.22724 7.28757 11.4587 8.87224 13.0489C10.4569 14.6391 12.6806 15.6394 15.1087 15.6394C16.1822 15.6394 17.2045 15.4599 18.1502 15.1008C18.4825 14.9726 18.8148 14.8443 19.1215 14.6904C18.5081 15.8703 17.6646 16.9219 16.6167 17.7426Z" fill="#2D383F"/>
</svg>

<svg viewBox="0 0 22 22" fill="none" xmlns="http://www.w3.org/2000/svg"><path d="M20.53 12.38a.7.7 0 0 0-.6.13 7.5 7.5 0 0 1-12.36-5.75c0-.87.15-1.71.4-2.48a6.9 6.9 0 0 1 1.23-2.2.66.66 0 0 0-.1-.93.7.7 0 0 0-.59-.13 10.18 10.18 0 0 0-4.55 17 10.07 10.07 0 0 0 13.42.8 10.12 10.12 0 0 0 3.58-5.62c.13-.38-.07-.74-.43-.82Zm-3.91 5.36a8.71 8.71 0 0 1-11.66-.69 8.82 8.82 0 0 1 2.17-14.06c-.12.29-.25.57-.35.88a8.88 8.88 0 0 0 2.1 9.18 8.82 8.82 0 0 0 10.24 1.64 9.32 9.32 0 0 1-2.5 3.05Z" fill="#FFFFFF"/></svg>
